X: 0243
T: Willie's Rare & Willie's Fair - 8x48J
P: Willie's Rare & Willie's Fair
O: Old song
B: Miss Milligan's Miscellany v.2 #43
Z: 2019 John Chambers <jc:trillian.mit.edu>
M: 6/8
L: 1/8
R: jig
K: A
%
E |\
"A"A2B cBA | "F#m"F2C "E7"D2E | "A"A2B cBA | "C#/A"c2e- e2f |\
"E"e2d "F#m"cBA | "A7"F2C "E7"DCB, | "A"CDE ceE | "D"F3 "A"A2A/B/ ||
"Am"=c2A "E7"GAB | "Am"A2E- "E7"EDB, | "A"CDE "E7"EFG | "A"A3 "E7"e2d |\
"A"c2A "E7"GAB | "A"A2E- "(E7)"EDB, | "A"CDE ceE | "D"F3 "A"A2c ||
"A"e2c "D"fdg | "A"agf edc | "D"d2F- FGA | "A"c3 "E"B2c |\
"D"d2f- fed | "A"c2e- edc | "E7"B2g- gfg | "A"a3 A2 :|
